X: 1
T:Miller's Maggot, The
R:Jig
Z:NJI
M:6/8
L:1/8
K:G
G2A B2A|B2A BGE|G2A B2A|Bee dBA|!
G2A B2A|B2A BGE|gfe dBA|1 Bde dBA:|2 Bde dBd||!
e2f g2e|d2B BAG|e2f gfg|a2a bge|!
e2f g2e|d2B BAG|A2B cBA|1 Bde dBd:|2 Bde dBA||!
